X: 103
T: No_3_Song_of_Elder_Brother_After_He_Had_Created_the_Spirits.krn
N: Derived from No_3_Song_of_Elder_Brother_After_He_Had_Created_the_Spirits.krn
%%abc-version 2.0
%%abcx-abcm2ps-target-version 5.9.1 (29 Sep 2008)
%%abc-creator hum2abc beta
%%abcx-conversion-date 2019/03/15 08:37:56
%%humdrum-veritas 2496863534
%%humdrum-veritas-data 1681788339
%%linebreak <none>
%%barnumbers 0
L: 1/8
M: 2/4
K: Bb clef=bass
[K:clef=bass][M:2/4]{/F,}F,2B,3/B,/ | 
B,2(G,3/F,/) | 
(G,3/F,/) F, z | 
{/B,}B,2{/B,} (B,3/G,/) | 
G,2(G,3/E,/) | 
(F,3/E,/) E, z | 
G,3/G,/ E,3/G,/ | 
(3!accent!B,A,G, (3!accent!G,F,E, | 
{/F,}F,2F,3/F,/ | 
{/F,}F,2{/F,}F,2 | 
F,4 |]  



